app/assets/images/payment_icons/taly.svg

<svg xmlns="http://www.w3.org/2000/svg" role="img" viewBox="0 0 38 24" width="38" height="24" fill="none" aria-labelledby="pi-taly"><title id="pi-taly">Taly</title><g clip-path="url(#pi-clip0_4680_18102)"><path opacity="0.07" d="M35 0H3C1.3 0 0 1.3 0 3V21C0 22.7 1.4 24 3 24H35C36.7 24 38 22.7 38 21V3C38 1.3 36.6 0 35 0Z" fill="black"/><path d="M35 1C36.1 1 37 1.9 37 3V21C37 22.1 36.1 23 35 23H3C1.9 23 1 22.1 1 21V3C1 1.9 1.9 1 3 1H35Z" fill="#131D2B"/><path d="M4.88483 15.4154V9.26414C4.88511 9.00816 4.95243 8.75672 5.08008 8.53485C5.20773 8.31297 5.39125 8.12839 5.6124 7.99948L9.58097 5.68713C9.80344 5.5565 10.0565 5.48702 10.3145 5.48574C10.5725 5.48445 10.8262 5.5514 11.05 5.6798C11.2737 5.8082 11.4596 5.99349 11.5886 6.21687C11.7177 6.44026 11.7854 6.69379 11.7849 6.95178V6.98353L7.91946 9.23239C7.69884 9.361 7.5158 9.54522 7.3886 9.76666C7.2614 9.9881 7.19448 10.239 7.19454 10.4944V16.6086L7.07813 16.6774C6.85625 16.8062 6.60438 16.8742 6.34786 16.8746C6.09135 16.8751 5.83924 16.808 5.6169 16.68C5.39457 16.5521 5.20985 16.3679 5.08133 16.1459C4.95282 15.9239 4.88504 15.6719 4.88483 15.4154Z" fill="#0E6FF7"/><path d="M7.84755 9.27841C7.54953 9.47911 7.3333 9.77996 7.23805 10.1264C7.20971 10.2472 7.19461 10.3707 7.193 10.4948V16.6189L7.07905 16.6878C6.85702 16.8169 6.60485 16.8852 6.34799 16.8857C6.09114 16.8863 5.83869 16.819 5.61613 16.6908C5.39357 16.5626 5.20876 16.3779 5.08037 16.1555C4.95198 15.933 4.88454 15.6806 4.88486 15.4238V12.7738C4.88486 10.8207 7.3785 9.58051 7.84755 9.27841Z" fill="#CAD1DB"/><path d="M18.0938 15.5724C17.677 15.6541 17.2684 15.6888 16.8679 15.6765C16.4675 15.6643 16.11 15.5867 15.7954 15.4436C15.4807 15.3006 15.2438 15.0759 15.0844 14.7695C14.9414 14.4957 14.8638 14.2178 14.8515 13.9359C14.8433 13.6499 14.8392 13.3271 14.8392 12.9675V7.11429H16.1263V12.9062C16.1263 13.1718 16.1284 13.4027 16.1325 13.5988C16.1406 13.7949 16.1835 13.9604 16.2612 14.0953C16.4083 14.3486 16.6412 14.4936 16.9599 14.5304C17.2827 14.5631 17.6606 14.5488 18.0938 14.4875V15.5724ZM13.5705 9.98268V8.953H18.0938V9.98268H13.5705Z" fill="white"/><path d="M20.5006 15.7562C20.0103 15.7562 19.5997 15.6663 19.2687 15.4865C18.9377 15.3027 18.6864 15.0616 18.5148 14.7633C18.3473 14.461 18.2635 14.13 18.2635 13.7704C18.2635 13.4354 18.3228 13.1412 18.4413 12.8878C18.5598 12.6345 18.7355 12.42 18.9684 12.2443C19.2013 12.0645 19.4873 11.9195 19.8264 11.8091C20.1206 11.7233 20.4537 11.6477 20.8255 11.5824C21.1973 11.517 21.5875 11.4557 21.9961 11.3985C22.4088 11.3413 22.8174 11.2841 23.2219 11.2269L22.7561 11.4843C22.7643 10.9654 22.654 10.5813 22.4252 10.332C22.2004 10.0787 21.8123 9.95203 21.2606 9.95203C20.9133 9.95203 20.5946 10.0338 20.3045 10.1972C20.0144 10.3565 19.8121 10.6221 19.6977 10.994L18.5026 10.6262C18.666 10.0583 18.9766 9.60677 19.4342 9.27172C19.8959 8.93666 20.5088 8.76913 21.2729 8.76913C21.8654 8.76913 22.3802 8.87128 22.8174 9.07558C23.2587 9.27579 23.5815 9.5945 23.7858 10.0317C23.892 10.2483 23.9574 10.4771 23.9819 10.7182C24.0064 10.9592 24.0187 11.2187 24.0187 11.4965V15.5724H22.8848V14.0585L23.1055 14.2546C22.8317 14.7613 22.4824 15.1392 22.0574 15.3885C21.6366 15.6336 21.1176 15.7562 20.5006 15.7562ZM20.7274 14.7082C21.0911 14.7082 21.4037 14.6448 21.6652 14.5182C21.9267 14.3874 22.1371 14.2219 22.2964 14.0217C22.4558 13.8215 22.56 13.6131 22.609 13.3965C22.6785 13.2004 22.7173 12.9798 22.7255 12.7346C22.7377 12.4895 22.7439 12.2933 22.7439 12.1462L23.1606 12.2995C22.7561 12.3607 22.3884 12.4159 22.0574 12.4649C21.7264 12.514 21.4261 12.563 21.1564 12.612C20.8909 12.657 20.6539 12.7121 20.4455 12.7775C20.2698 12.8388 20.1125 12.9124 19.9735 12.9982C19.8387 13.084 19.7304 13.1882 19.6487 13.3107C19.5711 13.4333 19.5323 13.5825 19.5323 13.7582C19.5323 13.9298 19.5752 14.0891 19.661 14.2362C19.7468 14.3792 19.8775 14.4936 20.0532 14.5794C20.2289 14.6653 20.4537 14.7082 20.7274 14.7082Z" fill="white"/><path d="M24.8748 15.5724V7.11465H26.1557V15.5724H24.8748Z" fill="white"/><path d="M28.2426 18.5143L29.5236 15.0269L29.542 16.0566L26.6552 8.953H27.9913L30.1487 14.4385H29.7565L31.8158 8.953H33.1152L29.4623 18.5143H28.2426Z" fill="white"/></g><defs><clipPath id="pi-clip0_4680_18102"><rect width="38" height="24" rx="2" fill="white"/></clipPath></defs></svg>

<svg xmlns="http://www.w3.org/2000/svg" role="img" viewBox="0 0 38 24" width="38" height="24" fill="none" aria-labelledby="pi-taly"><title id="pi-taly">Taly</title><g clip-path="url(#pi-a)"><path fill="#000" d="M35 0H3C1.3 0 0 1.3 0 3v18c0 1.7 1.4 3 3 3h32c1.7 0 3-1.3 3-3V3c0-1.7-1.4-3-3-3Z" opacity=".07"/><path fill="#131D2B" d="M35 1c1.1 0 2 .9 2 2v18c0 1.1-.9 2-2 2H3c-1.1 0-2-.9-2-2V3c0-1.1.9-2 2-2h32Z"/><path fill="#0E6FF7" d="M4.885 15.415v-6.15a1.466 1.466 0 0 1 .727-1.266l3.969-2.312a1.463 1.463 0 0 1 2.204 1.265v.032L7.919 9.232a1.46 1.46 0 0 0-.724 1.262v6.115l-.117.068a1.46 1.46 0 0 1-2.193-1.262Z"/><path fill="#CAD1DB" d="M7.848 9.278c-.298.201-.515.502-.61.848a1.71 1.71 0 0 0-.045.369v6.124l-.114.069a1.46 1.46 0 0 1-2.194-1.264v-2.65c0-1.953 2.494-3.193 2.963-3.496Z"/><path fill="#fff" d="M18.094 15.572a5.484 5.484 0 0 1-1.226.105c-.4-.013-.758-.09-1.073-.233a1.462 1.462 0 0 1-.71-.675 1.973 1.973 0 0 1-.234-.833 34.12 34.12 0 0 1-.012-.969V7.114h1.287v5.792c0 .266.002.497.006.693.009.196.051.361.13.496.146.254.38.399.698.435.323.033.7.019 1.134-.042v1.084Zm-4.524-5.59V8.954h4.524v1.03H13.57ZM20.5 15.756c-.49 0-.9-.09-1.231-.27a1.92 1.92 0 0 1-.754-.723 2.015 2.015 0 0 1-.252-.993c0-.335.06-.629.178-.882a1.7 1.7 0 0 1 .527-.644 2.82 2.82 0 0 1 .858-.435 9.396 9.396 0 0 1 1-.227c.371-.065.761-.126 1.17-.184a449.2 449.2 0 0 0 1.226-.171l-.466.257c.008-.519-.102-.903-.33-1.152-.226-.253-.614-.38-1.165-.38-.348 0-.666.082-.956.245-.29.16-.493.425-.607.797l-1.195-.368c.163-.568.474-1.02.931-1.354.462-.335 1.075-.503 1.839-.503.592 0 1.107.102 1.544.307.442.2.764.518.969.956.106.216.171.445.196.686.024.241.037.5.037.778v4.076h-1.134V14.06l.22.196c-.273.506-.623.884-1.048 1.133-.42.246-.94.368-1.556.368Zm.227-1.048c.364 0 .677-.063.938-.19.262-.13.472-.296.631-.496.16-.2.264-.409.313-.626.07-.196.108-.416.116-.661.013-.245.019-.442.019-.589l.417.153c-.405.062-.773.117-1.104.166-.33.049-.63.098-.9.147-.266.045-.503.1-.712.165a2.403 2.403 0 0 0-.471.221c-.135.086-.244.19-.325.313a.82.82 0 0 0-.117.447c0 .172.043.331.129.478a.903.903 0 0 0 .392.343c.176.086.4.13.674.13ZM24.875 15.572V7.115h1.28v8.457h-1.28ZM28.243 18.514l1.28-3.487.019 1.03-2.887-7.104h1.336l2.158 5.486h-.393l2.06-5.486h1.3l-3.654 9.561h-1.22Z"/></g><defs><clipPath id="pi-a"><rect width="38" height="24" fill="#fff" rx="2"/></clipPath></defs></svg>
